X: 4746
T: Boys Of Bluehill, The
R: hornpipe
M: 4/4
K: Dmajor
||A (3EFA|BA FA DE FA|BA Bd e2 de|fa af eg fe|de fd B2 dc|
BA FA DA FA|BA Bd e2 de|fa af eg fe|d2 d2 d2:|
|:fg|af df a2 gf|gf ga b2 ag|fa af eg fe|de fd Bc dc|
BA FA DE FA|BA Bd e2 de|fa af eg fe|d2 d2 d2:|

